X:1

T:Devil Take the Hindmost

M:6/8

L:1/8

Z:Transcribed by Laurie Griffiths

K:A

efg |\"A"a3 a3 | "A"agf edc |\"E7"Bcd cBA | "E7"Bc\d efg | "A"a3 a3 |\

"A"agf edc | "E7"Bcd dcB \|1 "A"A3 :|2 "A"A6 |"E"Bcd dcB | "A"cde edc |\

"E"Bcd dcB | "A"cde e3 |\"D"fga agf | "A"edc Bcd |\"E7"efe dcB | "A"A6 |

"Bm"Bcd dcB | "C#m"cde edc |\"D"Bcd dcB | "E"cde "E7"efg |\

"A"a3 a3 | "A"agf edc |\"E7"Bcd efg | "A"a3 ||

                       

DEVIL TAKE THE WARS (Go m-Beiried an Dialial Na Cogad). Irish, Air (4/4 time, "animated"). D Major. Standard tuning. AB. O'Neill (Music of Ireland: 1850 Melodies), 1903/1979; No. 543, pg. 95.

